X:1
T: Laddie wi' the Plaidie
C:
R:Strathspey
Q: 128
K:D
M:4/4
L:1/16
|:f3g f3e d3e d3B|A3F A3d ce3 e4|f3g f3e d3e d3B|c3d e3a fd3 d4|
A4 ((3F2E2D2) FA3 A3d|B3A B3d ce3 e4|A4 ((3F2E2D2) FA3 A3d|c3d e3a fd3 d4|
f3g f3e d3e d3B|A3F A3d ce3 e4|f3g f3e d3e d3B|c3d e3a fd3 d4|
f4 ((3a2g2f2) e4 ((3g2f2e2) |d4 ((3f2e2d2) c4 ((3e2d2c2) |B4 ((3d2c2B2) A4 f3a|g3f e3a fd3 d4:|
